icons/nintendoswitch.svg

<svg aria-labelledby="simpleicons-nintendoswitch-icon" role="img" viewBox="0 0 24 24" xmlns="http://www.w3.org/2000/svg"><title id="simpleicons-nintendoswitch-icon">Nintendo Switch icon</title><path d="M14.176 24h3.674c3.376 0 6.15-2.774 6.15-6.15V6.15C24 2.775 21.226 0 17.85 0H14.1c-.074 0-.15.074-.15.15v23.7c-.001.076.075.15.226.15zm4.574-13.199c1.351 0 2.399 1.125 2.399 2.398 0 1.352-1.125 2.4-2.399 2.4-1.35 0-2.4-1.049-2.4-2.4-.075-1.349 1.05-2.398 2.4-2.398zM11.4 0H6.15C2.775 0 0 2.775 0 6.15v11.7C0 21.226 2.775 24 6.15 24h5.25c.074 0 .15-.074.15-.149V.15c.001-.076-.075-.15-.15-.15zM9.676 22.051H6.15c-2.326 0-4.201-1.875-4.201-4.201V6.15c0-2.326 1.875-4.201 4.201-4.201H9.6l.076 20.102zM3.75 7.199c0 1.275.975 2.25 2.25 2.25s2.25-.975 2.25-2.25c0-1.273-.975-2.25-2.25-2.25s-2.25.977-2.25 2.25z"/></svg>

<?xml version="1.0" standalone="no"?><!-- Generator: Gravit.io --><svg xmlns="http://www.w3.org/2000/svg" xmlns:xlink="http://www.w3.org/1999/xlink" style="isolation:isolate" viewBox="0 0 24 24" width="24" height="24"><path d=" M 14.176 24 L 17.85 24 C 21.226 24 24 21.226 24 17.85 L 24 6.15 C 24 2.775 21.226 0 17.85 0 L 14.1 0 C 14.026 0 13.95 0.074 13.95 0.15 L 13.95 23.85 C 13.949 23.926 14.025 24 14.176 24 Z  M 18.75 10.801 C 20.101 10.801 21.149 11.926 21.149 13.199 C 21.149 14.551 20.024 15.599 18.75 15.599 C 17.4 15.599 16.35 14.55 16.35 13.199 C 16.275 11.85 17.4 10.801 18.75 10.801 Z  M 11.4 0 L 6.15 0 C 2.775 0 0 2.775 0 6.15 L 0 17.85 C 0 21.226 2.775 24 6.15 24 L 11.4 24 C 11.474 24 11.55 23.926 11.55 23.851 L 11.55 0.15 C 11.551 0.074 11.475 0 11.4 0 Z  M 9.676 22.051 L 6.15 22.051 C 3.824 22.051 1.949 20.176 1.949 17.85 L 1.949 6.15 C 1.949 3.824 3.824 1.949 6.15 1.949 L 9.6 1.949 L 9.676 22.051 L 9.676 22.051 L 9.676 22.051 Z  M 3.75 7.199 C 3.75 8.474 4.725 9.449 6 9.449 C 7.275 9.449 8.25 8.474 8.25 7.199 C 8.25 5.926 7.275 4.949 6 4.949 C 4.725 4.949 3.75 5.926 3.75 7.199 Z " fill="rgb(56,142,60)"/></svg>
